X: 2782
T: Banshee's Wail, The
R: jig
M: 6/8
K: Gmajor
|:B/A/|GED D2 D|GB/c/d ege|dBA A^GA|BGE E2 D|
GED DF/E/D|GBd e/f/ge|dBA A^GA|BGF G2:|
|:D|Gdd edd|gdg edG|BAF G/A/BA|GE^D E2 d|
[1 B/c/dG edG|gdg edG|dB^A B2 =A|AGF G2:|
[2 G2 D DED|GB/c/d e2 g|dBA A2 ^G/A/|BGF G2||

